numeric-9-box-multiple-outline.svg

<svg fill="currentColor" viewBox="0 0 24 24"><path d="M15 9h-2V7h2m0-2h-2a2 2 0 0 0-2 2v2a2 2 0 0 0 2 2h2v2h-4v2h4a2 2 0 0 0 2-2V7a2 2 0 0 0-2-2m6 12H7V3h14m0-2H7a2 2 0 0 0-2 2v14a2 2 0 0 0 2 2h14a2 2 0 0 0 2-2V3a2 2 0 0 0-2-2M3 5H1v16a2 2 0 0 0 2 2h16v-2H3z"/></svg>

<svg  viewBox="0 0 24 24" fill="currentColor"><path  d="M15,9H13V7H15M15,5H13A2,2 0 0,0 11,7V9C11,10.11 11.9,11 13,11H15V13H11V15H15A2,2 0 0,0 17,13V7C17,5.89 16.1,5 15,5M21,17H7V3H21M21,1H7A2,2 0 0,0 5,3V17A2,2 0 0,0 7,19H21A2,2 0 0,0 23,17V3A2,2 0 0,0 21,1M3,5H1V21A2,2 0 0,0 3,23H19V21H3V5Z"/></svg>
